X:1
T:Deep Blue Sea
M:6/4
L:1/2
K:C
 E F| E ^D/2 E/2| C A,| G,2| E F| E D/2 C/2| F E| D2| E F| E ^D/2 E/2|\
 C A,| G,2| C/2 C/2 C/4 G,3/4|
M:6/4
 C/2 C/2 C/4 G,3/4 C/2 F/2| E D C2|
